src/svg/area/area-infraestructura.svg

<?xml version="1.0" encoding="UTF-8" standalone="no"?>
<!-- Generado por Andres Lacquaniti  -->

<svg
   xmlns:dc="http://purl.org/dc/elements/1.1/"
   xmlns:cc="http://creativecommons.org/ns#"
   xmlns:rdf="http://www.w3.org/1999/02/22-rdf-syntax-ns#"
   xmlns:svg="http://www.w3.org/2000/svg"
   xmlns="http://www.w3.org/2000/svg"
   xmlns:sodipodi="http://sodipodi.sourceforge.net/DTD/sodipodi-0.dtd"
   xmlns:inkscape="http://www.inkscape.org/namespaces/inkscape"
   version="1.1"
   id="Layer_1"
   x="0px"
   y="0px"
   width="15px"
   height="15px"
   viewBox="0 0 15 15"
   style="enable-background:new 0 0 15 15;"
   xml:space="preserve"
   sodipodi:docname="area-infraestructura.svg"
   inkscape:version="0.92.0 r15299"><metadata
     id="metadata9"><rdf:RDF><cc:Work
         rdf:about=""><dc:format>image/svg+xml</dc:format><dc:type
           rdf:resource="http://purl.org/dc/dcmitype/StillImage" /><dc:title></dc:title></cc:Work></rdf:RDF></metadata><sodipodi:namedview
     pagecolor="#ffffff"
     bordercolor="#666666"
     borderopacity="1"
     objecttolerance="10"
     gridtolerance="10"
     guidetolerance="10"
     inkscape:pageopacity="0"
     inkscape:pageshadow="2"
     inkscape:window-width="1920"
     inkscape:window-height="996"
     id="namedview5"
     showgrid="false"
     inkscape:zoom="15.733333"
     inkscape:cx="0.090589222"
     inkscape:cy="10.518567"
     inkscape:window-x="-8"
     inkscape:window-y="-8"
     inkscape:window-maximized="1"
     inkscape:current-layer="Layer_1" /><path
     style="color:#000000;font-style:normal;font-variant:normal;font-weight:normal;font-stretch:normal;font-size:medium;line-height:normal;font-family:sans-serif;font-variant-ligatures:normal;font-variant-position:normal;font-variant-caps:normal;font-variant-numeric:normal;font-variant-alternates:normal;font-feature-settings:normal;text-indent:0;text-align:start;text-decoration:none;text-decoration-line:none;text-decoration-style:solid;text-decoration-color:#000000;letter-spacing:normal;word-spacing:normal;text-transform:none;writing-mode:lr-tb;direction:ltr;text-orientation:mixed;dominant-baseline:auto;baseline-shift:baseline;text-anchor:start;white-space:normal;shape-padding:0;clip-rule:nonzero;display:inline;overflow:visible;visibility:visible;opacity:1;isolation:auto;mix-blend-mode:normal;color-interpolation:sRGB;color-interpolation-filters:linearRGB;solid-color:#000000;solid-opacity:1;vector-effect:none;fill:#000000;fill-opacity:1;fill-rule:nonzero;stroke:none;stroke-width:0.81812191;stroke-linecap:butt;stroke-linejoin:miter;stroke-miterlimit:4;stroke-dasharray:none;stroke-dashoffset:0;stroke-opacity:1;color-rendering:auto;image-rendering:auto;shape-rendering:auto;text-rendering:auto;enable-background:accumulate"
     d="M 10.433594 0.46875 C 10.235861 0.46875 10.117034 0.59075481 10.068359 0.65625 C 10.019689 0.7217456 10.003032 0.76555624 9.9882812 0.80664062 C 9.9587854 0.88880923 9.9455637 0.95803668 9.9335938 1.0371094 C 9.9096616 1.195255 9.8984375 1.3850805 9.8984375 1.5957031 L 9.8984375 1.9375 L 5.0410156 1.9375 L 5.0410156 1.6328125 C 5.0410156 1.4221898 5.0297894 1.2323639 5.0058594 1.0742188 C 4.9938948 0.99514613 4.9806638 0.92787136 4.9511719 0.84570312 C 4.9364249 0.80461984 4.9217223 0.75885521 4.8730469 0.69335938 C 4.8243706 0.62786411 4.7035902 0.50585938 4.5058594 0.50585938 C 4.3081284 0.50585938 4.1893004 0.6278641 4.140625 0.69335938 C 4.09195 0.75885497 4.0752939 0.80461862 4.0605469 0.84570312 C 4.0310549 0.92787172 4.0178244 0.99514613 4.0058594 1.0742188 C 3.9918009 1.16713 3.9901371 1.2898914 3.984375 1.4023438 C 3.9713386 1.3973148 3.9690576 1.3915527 3.953125 1.3867188 C 3.9140811 1.3748727 3.851095 1.3621578 3.7792969 1.3671875 C 3.7074989 1.3722175 3.6263449 1.394314 3.546875 1.453125 C 3.3879297 1.5707493 3.3634469 1.7406638 3.3632812 1.8222656 C 3.3631694 1.8775322 3.3728231 1.9052507 3.3808594 1.9375 L 3.0097656 1.9375 C 2.8499486 1.9375 2.7065705 1.9480973 2.578125 1.9726562 C 2.513903 1.9849343 2.4554108 1.996556 2.3789062 2.03125 C 2.3406533 2.048596 2.2956445 2.0691849 2.2382812 2.1230469 C 2.1809182 2.1769089 2.0976562 2.2912201 2.0976562 2.4414062 C 2.0976562 2.5915923 2.1809192 2.7059033 2.2382812 2.7597656 C 2.2956444 2.8136276 2.3406544 2.8342155 2.3789062 2.8515625 C 2.4554103 2.8862565 2.5139023 2.8998314 2.578125 2.9121094 C 2.7065705 2.9366634 2.8499486 2.9472656 3.0097656 2.9472656 L 3.9707031 2.9472656 L 3.9707031 10.330078 L 3.0097656 10.330078 C 2.8499411 10.330078 2.7065727 10.340674 2.578125 10.365234 C 2.513902 10.377514 2.4554074 10.391091 2.3789062 10.425781 C 2.3406563 10.443131 2.295639 10.463718 2.2382812 10.517578 C 2.1809234 10.571438 2.0996094 10.685747 2.0996094 10.835938 C 2.0996094 10.986129 2.1809163 11.098483 2.2382812 11.152344 C 2.2956463 11.206214 2.3406542 11.228744 2.3789062 11.246094 C 2.4554103 11.280774 2.5139036 11.292418 2.578125 11.304688 C 2.706568 11.329236 2.8499518 11.339844 3.0097656 11.339844 L 3.4023438 11.339844 C 3.3173823 11.460087 3.2320386 11.581401 3.1757812 11.685547 C 3.1377723 11.755907 3.1059461 11.818966 3.0800781 11.902344 C 3.0671441 11.944034 3.0532494 11.988715 3.0527344 12.070312 C 3.0522177 12.151912 3.074464 12.322459 3.2324219 12.441406 C 3.390374 12.560349 3.5584356 12.534759 3.6367188 12.511719 C 3.7150017 12.488679 3.7545212 12.46146 3.7910156 12.4375 C 3.8631525 12.390159 3.9143771 12.344185 3.9707031 12.289062 L 3.9707031 13.365234 C 3.9707031 13.575853 3.9819294 13.76568 4.0058594 13.923828 C 4.0178234 14.002908 4.0310559 14.070177 4.0605469 14.152344 C 4.0752919 14.193424 4.091953 14.239187 4.140625 14.304688 C 4.189298 14.370177 4.3081151 14.492187 4.5058594 14.492188 C 4.7036036 14.492188 4.8243741 14.370182 4.8730469 14.304688 C 4.9217199 14.239197 4.9364259 14.193428 4.9511719 14.152344 C 4.9806629 14.070184 4.9938954 14.002901 5.0058594 13.923828 C 5.0297884 13.76568 5.0410156 13.575853 5.0410156 13.365234 L 5.0410156 11.339844 L 9.8984375 11.339844 L 9.8984375 13.328125 C 9.8984375 13.538744 9.9096617 13.726623 9.9335938 13.884766 C 9.9455647 13.963836 9.9587854 14.033067 9.9882812 14.115234 C 10.003029 14.156314 10.019688 14.202079 10.068359 14.267578 C 10.117029 14.333068 10.235862 14.455078 10.433594 14.455078 C 10.631325 14.455078 10.750153 14.333074 10.798828 14.267578 C 10.847498 14.202088 10.864156 14.156318 10.878906 14.115234 C 10.908406 14.033064 10.921624 13.963838 10.933594 13.884766 C 10.957514 13.726622 10.96875 13.538744 10.96875 13.328125 L 10.96875 12.349609 C 11.021281 12.410708 11.077308 12.487649 11.126953 12.537109 C 11.183603 12.593559 11.234056 12.640949 11.306641 12.689453 C 11.342941 12.713703 11.382854 12.739982 11.460938 12.763672 C 11.539016 12.787362 11.70824 12.814886 11.867188 12.697266 C 12.026127 12.579646 12.048661 12.409728 12.048828 12.328125 C 12.048994 12.246525 12.036016 12.2 12.023438 12.158203 C 11.998246 12.074613 11.967107 12.012084 11.929688 11.941406 C 11.854846 11.800049 11.752243 11.641961 11.626953 11.472656 L 11.529297 11.339844 L 11.53125 11.339844 C 11.691065 11.339844 11.834448 11.329247 11.962891 11.304688 C 12.027121 11.292417 12.085604 11.280774 12.162109 11.246094 C 12.200359 11.228754 12.243418 11.206204 12.300781 11.152344 C 12.358141 11.098484 12.441406 10.986129 12.441406 10.835938 C 12.441406 10.685746 12.358142 10.571438 12.300781 10.517578 C 12.243421 10.463718 12.200355 10.443131 12.162109 10.425781 C 12.085609 10.391091 12.027115 10.377504 11.962891 10.365234 C 11.834443 10.340674 11.691075 10.330078 11.53125 10.330078 L 10.96875 10.330078 L 10.96875 3.0546875 L 11.048828 2.9472656 L 11.529297 2.9472656 C 11.689113 2.9472656 11.832493 2.9366684 11.960938 2.9121094 C 12.025168 2.8998314 12.083651 2.8862565 12.160156 2.8515625 C 12.198406 2.8342165 12.243417 2.8136276 12.300781 2.7597656 C 12.358141 2.7059036 12.439453 2.5915924 12.439453 2.4414062 C 12.439453 2.2912202 12.358133 2.1769092 12.300781 2.1230469 C 12.243421 2.0691849 12.198403 2.048597 12.160156 2.03125 C 12.083646 1.996557 12.025161 1.9849343 11.960938 1.9726562 C 11.892914 1.9596528 11.808952 1.9588481 11.732422 1.953125 C 11.755295 1.9069978 11.779405 1.8629493 11.796875 1.8066406 C 11.809815 1.7649496 11.823699 1.7202741 11.824219 1.6386719 C 11.824741 1.5570709 11.802481 1.3865209 11.644531 1.2675781 C 11.565561 1.2081041 11.483865 1.1853155 11.412109 1.1796875 C 11.340359 1.1740575 11.279375 1.1857436 11.240234 1.1972656 C 11.161954 1.2203066 11.12243 1.2475344 11.085938 1.2714844 C 11.033542 1.3058718 10.995292 1.3417132 10.955078 1.3789062 C 10.949435 1.2611585 10.948248 1.1338763 10.933594 1.0371094 C 10.921624 0.95803665 10.908396 0.88880943 10.878906 0.80664062 C 10.864166 0.76555732 10.847498 0.72174527 10.798828 0.65625 C 10.750158 0.5907548 10.631326 0.46875 10.433594 0.46875 z M 5.3164062 2.9472656 L 9.7109375 2.9472656 L 7.4941406 5.8886719 L 5.3164062 2.9472656 z M 5.0410156 4.3710938 L 6.8242188 6.78125 L 5.0410156 9.1484375 L 5.0410156 4.3710938 z M 9.8984375 4.4765625 L 9.8984375 9.1386719 L 8.1582031 6.7871094 L 9.8984375 4.4765625 z M 7.4863281 7.6777344 L 9.4492188 10.330078 L 5.4902344 10.330078 L 7.4863281 7.6777344 z "
     id="rect4672-0-1-9-8" /></svg>

<svg width="15px" height="15px" enable-background="new 0 0 15 15" version="1.1" viewBox="0 0 15 15" xmlns="http://www.w3.org/2000/svg">
 <path d="m10.434 0.46875c-0.19773 0-0.31656 0.122-0.36524 0.1875-0.04867 0.065496-0.065327 0.10931-0.080078 0.15039-0.029496 0.082169-0.042718 0.1514-0.054687 0.23047-0.023932 0.15815-0.035156 0.34797-0.035156 0.55859v0.3418h-4.8574v-0.30469c0-0.21062-0.011226-0.40045-0.035156-0.55859-0.011965-0.079073-0.025196-0.14635-0.054688-0.22852-0.014747-0.041083-0.02945-0.086848-0.078125-0.15234-0.048676-0.065495-0.16946-0.1875-0.36719-0.1875-0.19773 0-0.31656 0.122-0.36523 0.1875-0.048675 0.065496-0.065331 0.11126-0.080078 0.15234-0.029492 0.082169-0.042722 0.14944-0.054688 0.22852-0.014058 0.092911-0.015722 0.21567-0.021484 0.32812-0.013036-0.005029-0.015317-0.010791-0.03125-0.015625-0.039044-0.011846-0.10203-0.024561-0.17383-0.019531-0.071798 0.00503-0.15295 0.027126-0.23242 0.085938-0.15895 0.11762-0.18343 0.28754-0.18359 0.36914-1.118e-4 0.055267 0.0095419 0.082985 0.017578 0.11523h-0.37109c-0.15982 0-0.3032 0.010597-0.43164 0.035156-0.064222 0.012278-0.12271 0.0239-0.19922 0.058594-0.038253 0.017346-0.083262 0.037935-0.14062 0.091797-0.057363 0.053862-0.14062 0.16817-0.14062 0.31836s0.083263 0.2645 0.14062 0.31836c0.057363 0.053862 0.10237 0.07445 0.14062 0.091797 0.076504 0.034694 0.135 0.048269 0.19922 0.060547 0.12845 0.024554 0.27182 0.035156 0.43164 0.035156h0.96094v7.3828h-0.96094c-0.15982 0-0.30319 0.010596-0.43164 0.035156-0.064223 0.01228-0.12272 0.025857-0.19922 0.060547-0.03825 0.01735-0.083267 0.037937-0.14062 0.091797s-0.13867 0.16817-0.13867 0.31836 0.081307 0.26254 0.13867 0.31641c0.057365 0.05387 0.10237 0.0764 0.14062 0.09375 0.076504 0.03468 0.135 0.046324 0.19922 0.058594 0.12844 0.024548 0.27183 0.035156 0.43164 0.035156h0.39258c-0.084962 0.12024-0.17031 0.24156-0.22656 0.3457-0.038009 0.07036-0.069835 0.13342-0.095703 0.2168-0.012934 0.04169-0.026829 0.086371-0.027344 0.16797-5.167e-4 0.0816 0.02173 0.25215 0.17969 0.37109 0.15795 0.11894 0.32601 0.093353 0.4043 0.070313 0.078283-0.02304 0.1178-0.050259 0.1543-0.074219 0.072137-0.047341 0.12336-0.093315 0.17969-0.14844v1.0762c0 0.21062 0.011226 0.40045 0.035156 0.55859 0.011964 0.07908 0.025196 0.14635 0.054688 0.22852 0.014745 0.04108 0.031406 0.086843 0.080078 0.15234 0.048673 0.065489 0.16749 0.1875 0.36523 0.1875 0.19774 0 0.31851-0.12201 0.36719-0.1875 0.048673-0.065491 0.063379-0.11126 0.078125-0.15234 0.029491-0.08216 0.042724-0.14944 0.054688-0.22852 0.023929-0.15815 0.035156-0.34798 0.035156-0.55859v-2.0254h4.8574v1.9883c0 0.21062 0.011224 0.3985 0.035156 0.55664 0.011971 0.07907 0.025192 0.1483 0.054687 0.23047 0.014748 0.04108 0.031407 0.086845 0.080078 0.15234 0.04867 0.06549 0.1675 0.1875 0.36524 0.1875 0.19773 0 0.31656-0.122 0.36523-0.1875 0.04867-0.06549 0.065328-0.11126 0.080078-0.15234 0.0295-0.08217 0.042718-0.1514 0.054688-0.23047 0.02392-0.15814 0.035156-0.34602 0.035156-0.55664v-0.97852c0.052531 0.061099 0.10856 0.13804 0.1582 0.1875 0.05665 0.05645 0.1071 0.10384 0.17969 0.15234 0.0363 0.02425 0.076213 0.050529 0.1543 0.074219 0.078078 0.02369 0.2473 0.051214 0.40625-0.066406 0.15894-0.11762 0.18147-0.28754 0.18164-0.36914 1.66e-4 -0.0816-0.012812-0.12812-0.02539-0.16992-0.025192-0.08359-0.056331-0.14612-0.09375-0.2168-0.074842-0.14136-0.17744-0.29944-0.30274-0.46875l-0.097656-0.13281h0.001953c0.15982 0 0.3032-0.010597 0.43164-0.035156 0.06423-0.012271 0.12271-0.023914 0.19922-0.058594 0.03825-0.01734 0.081309-0.03989 0.13867-0.09375 0.05736-0.05386 0.14062-0.16622 0.14062-0.31641 0-0.15019-0.083264-0.2645-0.14062-0.31836-0.05736-0.05386-0.10043-0.074447-0.13867-0.091797-0.0765-0.03469-0.13499-0.048277-0.19922-0.060547-0.12845-0.02456-0.27182-0.035156-0.43164-0.035156h-0.5625v-7.2754l0.080078-0.10742h0.48047c0.15982 0 0.3032-0.010597 0.43164-0.035156 0.06423-0.012278 0.12271-0.025853 0.19922-0.060547 0.03825-0.017346 0.083261-0.037935 0.14062-0.091797 0.05736-0.053862 0.13867-0.16817 0.13867-0.31836 0-0.15019-0.08132-0.2645-0.13867-0.31836-0.05736-0.053862-0.10238-0.07445-0.14062-0.091797-0.07651-0.034693-0.135-0.046316-0.19922-0.058594-0.068024-0.013003-0.15199-0.013808-0.22852-0.019531 0.022873-0.046127 0.046983-0.090176 0.064453-0.14648 0.01294-0.041691 0.026824-0.086366 0.027344-0.16797 5.22e-4 -0.081601-0.021738-0.25215-0.17969-0.37109-0.07897-0.059474-0.16067-0.082263-0.23242-0.087891-0.07175-0.00563-0.13273 0.0060561-0.17188 0.017578-0.07828 0.023041-0.1178 0.050269-0.1543 0.074219-0.052396 0.034387-0.090646 0.070229-0.13086 0.10742-0.005643-0.11775-0.00683-0.24503-0.021484-0.3418-0.01197-0.079073-0.025198-0.1483-0.054688-0.23047-0.01474-0.041083-0.031408-0.084895-0.080078-0.15039-0.04867-0.065495-0.1675-0.1875-0.36523-0.1875zm-5.1172 2.4785h4.3945l-2.2168 2.9414-2.1777-2.9414zm-0.27539 1.4238 1.7832 2.4102-1.7832 2.3672v-4.7773zm4.8574 0.10547v4.6621l-1.7402-2.3516 1.7402-2.3105zm-2.4121 3.2012 1.9629 2.6523h-3.959l1.9961-2.6523z" color="#000000" color-rendering="auto" dominant-baseline="auto" enable-background="accumulate" image-rendering="auto" shape-rendering="auto" solid-color="#000000" style="font-feature-settings:normal;font-variant-alternates:normal;font-variant-caps:normal;font-variant-ligatures:normal;font-variant-numeric:normal;font-variant-position:normal;isolation:auto;mix-blend-mode:normal;shape-padding:0;text-decoration-color:#000000;text-decoration-line:none;text-decoration-style:solid;text-indent:0;text-orientation:mixed;text-transform:none;white-space:normal"/>
</svg>
